src/basic/600/u2B21-hex.svg

<svg width="19" height="24" viewBox="0 0 19 24" fill="none" xmlns="http://www.w3.org/2000/svg">
<path fill-rule="evenodd" clip-rule="evenodd" d="M9.5,1.94098l0.22361,0.1118l8.99999,4.5l0.2764,0.1382v0.30902v10.5v0.2872l-0.2481,0.1447l-8.99996,5.25l-0.25194,0.1469l-0.25194,-0.1469l-9,-5.25l-0.24806,-0.1447v-0.2872v-10.5v-0.30902l0.27639,-0.1382l9,-4.5zM1,7.30901v9.90379l8.5,4.9583l8.5,-4.9583v-9.90379l-8.5,-4.25z" fill="black"/>
</svg>

<svg width="19" height="24" viewBox="0 0 19 24" fill="none" xmlns="http://www.w3.org/2000/svg">
<path fill-rule="evenodd" clip-rule="evenodd" d="M9.5 1.94098L9.72361 2.05278L18.7236 6.55278L19 6.69098V7V17.5V17.7872L18.7519 17.9319L9.75194 23.1819L9.5 23.3288L9.24806 23.1819L0.248064 17.9319L0 17.7872V17.5V7V6.69098L0.276393 6.55278L9.27639 2.05278L9.5 1.94098ZM1 7.30901V17.2128L9.5 22.1711L18 17.2128V7.30901L9.5 3.05901L1 7.30901Z" fill="black"/>
</svg>
